X:1
T:Mrs Casey
M:6/8
L:1/8
O:Duns Tew
P:A(AB2)4A
K:D 
P:A
f2e | d2B BcB | A2F A2A | BcA B2c | f3 f2e|
      d2B BcB | A2F A3  | Bcd e2c | d3   |]
P:B 
A3 | d2e f2g | a2b a2A | d2e f2g | a3-a3  |
     b2g a2f | g2f e2d | d2c B2A | g3 efe |
     d2B BcB | A2F A3  | Bcd e2c | d3    |]
</abc>
